!!!!SEGMENT: pl-wtm--r-2039-ii_smietanski-emil-wladyslaw--doppelfuge.krn
!!!cenid: 18xx:2023
!!!COM: Śmietański, Emil Władysław
!!!COM-rismID: pe50041781
!!!CDT: 1845-1886
!!!CNT: Polish
!!!OTL: Doppelfuge
!!!PDT:
!!!AGN: Secular; Fugue
!!!SMS-siglum: PL-Wtm
!!!SMS-shelfmark: R 2039-II
!!!SMS-shelfwork: W
!!!SMS-variant:
!!!SMS-altvar:
!!!NIFC-rismSourceID: 1001111529
!!!NIFC-rismChildID: 1001111529
!!!NIFC-islandoraID: pl-wtm:47519
!!!URL-pdf-islandora: https://repozytorium.nifc.pl/islandora/object/pl-wtm%3A47519/datastream/PDF/view
!!!URL-scan: https://polish.musicsources.pl/pl/lokalizacje/galeria/rekopisy/7709/1
!!!ONB-nifc: UWAGA: skan 0004-0005, str. 129-130 (2-i sysytem)
!!!AIN: 1 empty
!!!key:
**kern	**kern
*part1	*part1
*staff2	*staff1
*Iempty	*Iforte
*	*I"Fortepian
*clefF4	*clefG2
*k[]	*k[]
*C:	*C:
*M2/2	*M2/2
*met(c|)	*met(c|)
=1	=1
*	*2\right
!!LO:TX:t=P:problem:all\right:global
!	!LO:TX:a:Bi:t=Doppelfuge.
1ryy	2cc\
.	2b\
=2	=2
*2\right	*
4rF	2a\
4A/	.
4B/	2g\
4c#X/	.
=3	=3
4d/	2f\
4cn/	.
4B/	4g\
8A/L	4f\
8B/J	.
=4	=4
*	*^
4c/	2gg/	2e\
4c#X/	.	.
4d/	2ff#X/	2re
8cn/L	.	.
8B/J	.	.
=5	=5	=5
2c/	2ee/	4rc
.	.	4e\
2B/	2dd/	4f#X\
.	.	4g#X\
=6	=6	=6
2A/	2cc/	4a\
.	.	4gn\
[>2d/	4dd/	4f#X\
.	4cc/	8e\L
.	.	8f#\J
=7	=7	=7
4d/]	2b/	2g\
4G/	.	.
4A/	4cc/	4f#X\
4B/	4dd/	4fn\
=8	=8	=8
*^	*	*
!LO:TX:a:t=P:problem=note position	!	!	!
2c/	2c\	4ee/	4e\
.	.	4rdd	4f\
4d/	2B\	2rdd	4g\
8e/L	.	.	4g#X\
8d/J	.	.	.
!!LO:LB:g=original
=9	=9	=9	=9
2c/	2A\	4r	2a\
.	.	4a/	.
4B/	2G\	4b/	2e\
4B-X/	.	4cc#X/	.
=10	=10	=10	=10
2A/	2F\	4dd/	2d\
.	.	4cc/	.
4G/	4G\	4b/	[<2g\
4rc	4F\	8a/L	.
.	.	8b/J	.
=11	=11	=11	=11
2g/	4E\	4cc/	2g\]
.	4E-X\	4cc#X/	.
2f#X/	4D\	2dd/	4a\
.	4rEE	.	8b\L
.	.	.	8a\J
=12	=12	=12	=12
2e/	4rEE	2.cc/	2g\
.	4E\	.	.
2d/	4F#X\	.	4a\
.	4G#X\	4b/	4b\
=13	=13	=13	=13
2c/	4A\	2a/	2e\
.	4Gn\	.	.
4d/	4F#X\	4b/	2d\
4c/	8E\L	4a/	.
.	8F#\J	.	.
=14	=14	=14	=14
1B	4G\	2g/	4d\
.	4Fn\	.	4rd
.	4E\	4gg/	2re
.	4D\	4ff/	.
=15	=15	=15	=15
4c/	4C\	2ee/	2cc\
4rc	8E\L	.	.
.	8F\J	.	.
2rc	4G\	2dd/	2b\
.	4G#X\	.	.
=16	=16	=16	=16
4re	[<1A	2cc/	2a\
4A/	.	.	.
4B/	.	4dd/	2g\
4c#X/	.	4ee/	.
!!LO:LB:g=original
=17	=17	=17	=17
4d/	4A\]	2ff/	2f\
4c/	4A-X\	.	.
4B/	2G\	4ee/	4g\
8A-/L	.	4dd/	4f\
8B/J	.	.	.
=18	=18	=18	=18
4c/	4C\	4cc/	4e\
4B/	8D\L	4r	4d\
.	8E\J	.	.
4A/	[<2F\	2r	4c\
8G#X/L	.	.	8B\L
8A/J	.	.	8c\J
=19	=19	=19	=19
4B/	2F\]	1r	2d\
4A/	.	.	.
4G#X/	4E\	.	4c\
8F#X/L	4D\	.	4B\
8G#/J	.	.	.
=20	=20	=20	=20
4A/	2C\	2ee/	2A\
4E/	.	.	.
4F#X/	2BB\	2dd/	2rc
4G#X/	.	.	.
=21	=21	=21	=21
2A/	2AA\	2cc/	4rc
.	.	.	4c\
2rB	4BB\	2b/	4d\
.	4C\	.	4e\
=22	=22	=22	=22
1rB	4D\	2a/	4f\
.	4C\	.	4e\
.	4BB\	4b/	4d\
.	4F\	4a/	8c\L
.	.	.	8d\J
=23	=23	=23	=23
!	!LO:TX:a:t=P:problem=note position	!	!
2E/	4E\	4.g#X/	2e\
.	8D\L	.	.
.	8C\J	8a/	.
!	!LO:TX:a:t=P:problem=w źródle brak początku ligatury	!	!
2F#X/	[<2BB\	4b/	4d\
.	.	4r	4d#X\
!!LO:LB:g=original
=24	=24	=24	=24
2G#X/	4BB\]	4ree	4e\
.	4E\	4ee/	8B\L
.	.	.	8c\J
2A/	2F#X\	4dd/	4d\
.	.	4cc/	4d#X\
=25	=25	=25	=25
2B/	2G#X\	4b/	2e\
.	.	4cc/	.
4A/	4F#X\	4dd/	4d\
4B/	4G#\	8ee/L	8B\L
.	.	8dd/J	8f\J
=26	=26	=26	=26
2c/	2A\	4cc/	1e
.	.	4a/	.
2rc	2G\	4b/	.
.	.	4cc#X/	.
=27	=27	=27	=27
2d/	4F\	4dd/	4a\
.	4D\	4ree	4f\
2c/	4E\	2ree	4g\
.	4F\	.	4a\
=28	=28	=28	=28
4B-X/	4G\	4rdd	2g\
4G/	4r	4b-X/	.
4A/	2r	4cc/	2f\
4B-/	.	4dd/	.
*v	*v	*	*
=29	=29	=29
4c/	2cc/	4e\
8B-X/L	.	4c\
8A/J	.	.
4G/	2b-X/	4d\
[>4c/	.	4e\
=30	=30	=30
*^	*	*
4c/]	2F\	2a/	4f\
4A/	.	.	4rc
4B/	2E\	2g/	2rc
4c#X/	.	.	.
!!LO:LB:g=original
=31	=31	=31	=31
4d/	2D\	2f/	4rB
4rc	.	.	4d\
2rc	2C\	4g/	4e\
.	.	4a/	4f#X\
=32	=32	=32	=32
2D/	2BB-X\	4b-X/	4g\
.	.	4a/	4fn\
2E/	4C\	4g/	4e\
.	4BB-\	4r	4d\
=33	=33	=33	=33
2F/	2AA\	4r	2c\
.	.	4ff/	.
2G/	4C\	4ee/	2rcyy
.	4BB-X\	4dd/	.
=34	=34	=34	=34
2A/	4AA\	4cc/	4rc
.	[<2.F\	4dd/	4a\
4G/	.	4ee/	4b-X\
4A/	.	8ff/L	4cc\
.	.	8ee-X/J	.
=35	=35	=35	=35
4B-X/	4F\]	4dd/	4dd\
4c/	4A\	4raa	4cc\
2d/	4G\	2raa	4b-X\
.	4F\	.	8a\L
.	.	.	8b-\J
=36	=36	=36	=36
4G/	4E\	1rff	2cc\
4A/	4F\	.	.
4B-X/	4G\	.	2e\
8c/L	8A\L	.	.
8B-/J	8G\J	.	.
=37	=37	=37	=37
2A/	2F\	4rdd	4f\
.	.	4cc/	4re
4d/	4G\	4b-X/	2re
4c#X/	4A\	4a/	.
!!LO:LB:g=original
=38	=38	=38	=38
2d/	4B-X\	4g/	4rc
.	4A\	4a/	4f\
2rc	[<2G\	4b-X/	4e\
.	.	8cc/L	4d\
.	.	8b-/J	.
=39	=39	=39	=39
4rc	4G\]	2a/	4c#X\
4A/	4F\	.	4d\
4Bn/	4E\	4g/	4e\
4c#X/	4r	8a/L	8f\L
.	.	8g/J	8e\J
=40	=40	=40	=40
!	!	!LO:TX:a:t=P:problem=w źródle w tym takcie poprawki naniesione ołówkiem	!
4d/	4rEE	4f/	4d\
4c/	4AA\	4f#X/	2e-X\
4B-X/	4GG\	4g/	.
8A/L	4FF\	4a/	4d\
8Bn/J	.	.	.
=41	=41	=41	=41
4c#X/	4EE\	4g/	4e\
8d/L	4FF\	4f/	2d\
8cn/J	.	.	.
4B-X/	4GG\	4e/	.
4A/	8AA\L	4r	4c#X\
.	8GG\J	.	.
=42	=42	=42	=42
1A	4FF\	4r	2d\
.	4F\	4d/	.
.	4E\	4e/	4c#X\
.	4D\	4f/	4d\
=43	=43	=43	=43
4B-X/	4C#X\	4g/	4e\
4A/	4D\	4f/	4d\
2G/	4E\	4e/	4c#X\
.	8F\L	8d/L	8B\L
.	8E\J	8e/J	8c#\J
!!LO:LB:g=original
=44	=44	=44	=44
4F/	4D\	4f/	2d\
4A/	4FF\	4f/	.
4G/	4GG\	4e/	4B-X\
4F/	4GG#X\	4d/	4Bn\
=45	=45	=45	=45
4E/	1AA	4c#X/	2A\
4F/	.	4d/	.
4G/	.	4e/	2c#\
8A/L	.	8f/L	.
8G/J	.	8e/J	.
=46	=46	=46	=46
2F/	2DD\	4d/	4A\
.	.	4r	4Bn\
2F#X/	4AA\	2r	4c\
.	4AA-X\	.	8d\L
.	.	.	8c\J
=47	=47	=47	=47
4.G/	[<1GG	1gg	4B\
.	.	.	8b\L
8A/	.	.	8cc\J
4B/	.	.	4dd\
8c/L	.	.	4ee\
8B/J	.	.	.
=48	=48	=48	=48
4A/	1GG_<	1ff	4rc
4A-X/	.	.	4cc\
4G/	.	.	4b\
8An/L	.	.	4a\
8Bn/J	.	.	.
=49	=49	=49	=49
2c/	1GG_<	1ee	4g\
.	.	.	4a\
2g/	.	.	4b-X\
.	.	.	8cc\L
.	.	.	8b-\J
!!LO:PB:g=original
=50	=50	=50	=50
!	!LO:TX:a:t=P:problem=W źródle brak części ligatury przy łamaniu systemu	!	!
4f/	1GG_<	1dd	4a\
4A/	.	.	4f\
4B-X/	.	.	4g\
4Bn/	.	.	4f\
=51	=51	=51	=51
4c/	1GG_<	1cc	2e\
4B-X/	.	.	.
4A/	.	.	4f\
8G/L	.	.	4e\
8A/J	.	.	.
=52	=52	=52	=52
2B/	1GG_<	2dd/	4d\
.	.	.	4f\
4c/	.	2cc/	4e\
4F#X/	.	.	4e-X\
=53	=53	=53	=53
2G/	1GG]	2b/	4d\
.	.	.	4en\
4A/	.	2r	4f\
4B/	.	.	8g\L
.	.	.	8f\J
=54	=54	=54	=54
4c/	4AA\	2cc/	2e\
4E/	4C\	.	.
4F/	4D\	2b/	2re
4G/	4E\	.	.
=55	=55	=55	=55
4A/	2F\	2a/	4rc
4rc	.	.	4A\
2rc	2E\	2g/	4B\
.	.	.	4c#X\
!!LO:LB:g=original
=56	=56	=56	=56
2d/	2D\	4f/	4d\
.	.	4g/	4e\
2c/	2r	4a/	4f\
.	.	4a-X/	4e-X\
=57	=57	=57	=57
!	!	!	!LO:TX:a:t=P:problem=note position
2B/	4r	2g/	1d
.	4GG\	.	.
2A/	4AA\	2f/	.
.	4BB\	.	.
=58	=58	=58	=58
2G/	2C\	4e/	4c\
.	.	4f#X/	4e-X\
2r	2BB\	4g/	2d\
.	.	8a/L	.
.	.	8b/J	.
=59	=59	=59	=59
4r	2AA\	2cc/	4e\
4A/	.	.	4cc\
4B/	2GG\	2ee/	4b\
4c#X/	.	.	4b-X\
=60	=60	=60	=60
4d/	2FF\	1dd	4a\
4cn/	.	.	4a-X\
4B/	2GG\	.	4g\
8A/L	.	.	4f\
8B/J	.	.	.
=61	=61	=61	=61
!	!	!LO:TX:a:t=P:problem=w źródle ozdobna kreska końcowa	!
!LO:TX:a:t=P:problem=w źródle ozdobna kreska końcowa	!	!	!
!	!	!LO:TX:b:Bi:t=Fine.	!
1c;>	1CC	1cc;>	1e
*v	*v	*	*
*	*v	*v
==	==
*-	*-
!!!system-decoration: {(s1,s2)}
!!!RDF**kern: > = above
!!!RDF**kern: < = below
!!!RDF**kern: | = vertical stroke
!!!RDF**kern: N = linked
!!!RDF**kern: i = editorial accidental
!!!EED: Wojciech Jakubiak-Danek
!!!EEV: 2021-05-30
!!!ENC: Mateusz Solarz
!!!END: 2021-05-08
!!!YEC: Copyright 2022 Narodowy Instytut Fryderyka Chopina (https://polishscores.org)
!!!YEM: License CC-BY-4.0 (https://creativecommons.org/licenses/by/4.0)
